X:38
T:Sydney Polka Charles Sandys Packer 
L:1/8
M:4/4
K:Ab
cd | ec'ba gbaf | efec A2cd | efed B2cd | efec B2cd |
ec'ba gbaf |$ efec A2GA | GABc defg | a2c2 A2 :| 

